icons/archive-line.svg

<svg viewBox="0 0 24 24" fill="currentColor" xmlns="http://www.w3.org/2000/svg"><path d="M3 10H2V4.00293C2 3.44903 2.45531 3 2.9918 3H21.0082C21.556 3 22 3.43788 22 4.00293V10H21V20.0015C21 20.553 20.5551 21 20.0066 21H3.9934C3.44476 21 3 20.5525 3 20.0015V10ZM19 10H5V19H19V10ZM4 5V8H20V5H4ZM9 12H15V14H9V12Z"/></svg>

<svg xmlns="http://www.w3.org/2000/svg" viewBox="0 0 24 24">
    <g>
        <path fill="none" d="M0 0h24v24H0z"/>
        <path d="M3 10H2V4.003C2 3.449 2.455 3 2.992 3h18.016A.99.99 0 0 1 22 4.003V10h-1v10.001a.996.996 0 0 1-.993.999H3.993A.996.996 0 0 1 3 20.001V10zm16 0H5v9h14v-9zM4 5v3h16V5H4zm5 7h6v2H9v-2z"/>
    </g>
</svg>
